X: 38171
T: Spot
R: polka
M: 2/4
K: Eminor
|:~B2 BA|Bd gd|eg de|Bd AG/A/|
~B2 BA|Bd ef|g/f/e fd|1 e2 ed:|2 e2 ef||
|:gd g/a/b|ag eg|de Bd|GA E2|
D/E/G/A/ Bg|de gB|G>A BA|1 GD Ef:|2 GD EA||

